assets/icons/lips.svg

<svg width="24" height="24" viewBox="0 0 24 24" fill="none" xmlns="http://www.w3.org/2000/svg">
<path fill-rule="evenodd" clip-rule="evenodd" d="M5.91899 2.44157C5.93408 2.38495 5.96019 2.33187 5.99581 2.28535C6.03143 2.23884 6.07587 2.1998 6.12659 2.17047C6.17731 2.14114 6.23332 2.1221 6.29141 2.11443C6.34949 2.10676 6.40852 2.11062 6.46511 2.12578L8.17408 2.58398C8.23067 2.5991 8.28373 2.62523 8.33023 2.66086C8.37673 2.69649 8.41575 2.74093 8.44508 2.79164C8.4744 2.84235 8.49345 2.89834 8.50113 2.95642C8.50882 3.01449 8.50499 3.07351 8.48987 3.13011C8.47474 3.1867 8.44862 3.23976 8.41299 3.28626C8.37736 3.33276 8.33292 3.37178 8.2822 3.4011C8.23149 3.43043 8.1755 3.44948 8.11743 3.45716C8.05935 3.46485 8.00033 3.46102 7.94374 3.44589L6.66573 3.10286L6.3227 4.38087C6.30945 4.43939 6.28452 4.49463 6.24941 4.54328C6.21429 4.59194 6.16972 4.633 6.11836 4.66402C6.067 4.69504 6.00991 4.71537 5.9505 4.72379C5.89109 4.73222 5.8306 4.72857 5.77264 4.71306C5.71468 4.69754 5.66045 4.67049 5.61319 4.63352C5.56593 4.59655 5.52663 4.55042 5.49762 4.49789C5.46862 4.44537 5.45052 4.38753 5.4444 4.32784C5.43828 4.26815 5.44428 4.20785 5.46203 4.15053L5.92023 2.44157H5.91899Z" fill="#485FC7"/>
<path fill-rule="evenodd" clip-rule="evenodd" d="M6.37718 2.60373C6.42791 2.57442 6.48392 2.5554 6.54201 2.54776C6.6001 2.54011 6.65912 2.54399 6.71571 2.55917C6.77229 2.57436 6.82533 2.60054 6.87179 2.63623C6.91825 2.67193 6.95722 2.71643 6.98647 2.76719L8.36231 5.15108C8.42143 5.25355 8.43742 5.37531 8.40676 5.48957C8.37611 5.60383 8.30131 5.70124 8.19884 5.76036C8.09637 5.81948 7.97461 5.83547 7.86035 5.80481C7.74608 5.77416 7.64868 5.69937 7.58956 5.59689L6.21495 3.21301C6.1856 3.16235 6.16651 3.10641 6.15877 3.04837C6.15104 2.99034 6.15481 2.93135 6.16987 2.87477C6.18494 2.81819 6.211 2.76513 6.24657 2.71863C6.28214 2.67212 6.32652 2.63308 6.37718 2.60373ZM5.91898 21.5584C5.93408 21.615 5.96018 21.6681 5.9958 21.7146C6.03143 21.7611 6.07587 21.8001 6.12659 21.8295C6.17731 21.8588 6.23331 21.8778 6.2914 21.8855C6.34949 21.8932 6.40851 21.8893 6.46511 21.8742L8.17407 21.416C8.23259 21.4027 8.28783 21.3778 8.33649 21.3427C8.38514 21.3076 8.42621 21.263 8.45722 21.2116C8.48824 21.1603 8.50857 21.1032 8.517 21.0438C8.52542 20.9844 8.52177 20.9239 8.50626 20.8659C8.49075 20.8079 8.4637 20.7537 8.42672 20.7065C8.38975 20.6592 8.34362 20.6199 8.2911 20.5909C8.23857 20.5619 8.18073 20.5438 8.12105 20.5377C8.06136 20.5316 8.00105 20.5375 7.94374 20.5553L6.66573 20.8971L6.32269 19.6191C6.30883 19.5611 6.28348 19.5065 6.24815 19.4585C6.21282 19.4105 6.16823 19.3701 6.11701 19.3396C6.06579 19.3092 6.00898 19.2893 5.94994 19.2812C5.8909 19.273 5.83083 19.2768 5.77328 19.2923C5.71573 19.3078 5.66187 19.3347 5.61489 19.3713C5.5679 19.408 5.52874 19.4537 5.49972 19.5057C5.4707 19.5578 5.45241 19.6151 5.44594 19.6744C5.43946 19.7336 5.44493 19.7936 5.46202 19.8507L5.92022 21.5596L5.91898 21.5584Z" fill="#485FC7"/>
<path fill-rule="evenodd" clip-rule="evenodd" d="M6.37715 21.3979C6.59015 21.5205 6.86259 21.4474 6.98643 21.2332L8.36227 18.8505C8.42139 18.7481 8.43738 18.6263 8.40672 18.512C8.37607 18.3978 8.30128 18.3004 8.1988 18.2413C8.09633 18.1821 7.97457 18.1662 7.86031 18.1968C7.74605 18.2275 7.64864 18.3023 7.58952 18.4047L6.21492 20.7874C6.18556 20.838 6.16647 20.894 6.15873 20.952C6.151 21.01 6.15477 21.069 6.16984 21.1256C6.1849 21.1822 6.21096 21.2352 6.24653 21.2818C6.2821 21.3283 6.32649 21.3673 6.37715 21.3967V21.3979ZM8.16165 8.55093L8.0663 8.59056L8.02667 8.6079L7.93379 8.65124L7.84339 8.69582L7.75299 8.74288L7.66259 8.79242L7.57218 8.84443L7.4793 8.90015C7.46524 8.90836 7.45121 8.91662 7.4372 8.92492L7.34432 8.98436L7.25392 9.04381L7.16228 9.10572L7.02358 9.20108L6.93194 9.26671L6.74618 9.40294L6.58272 9.52677L6.41801 9.65309L5.82854 10.1113L5.65517 10.2426L5.47932 10.3751L5.30347 10.5039C4.79573 10.8692 4.24589 11.2172 3.63289 11.4574C4.09357 11.741 4.50843 12.0345 4.89233 12.3305L4.8948 12.3317L5.07313 12.4704L5.16229 12.541L5.16353 12.5422L5.33691 12.6822L5.5078 12.8221L5.67498 12.9608L5.91894 13.1664L6.38953 13.5688L6.69541 13.8289L6.92203 14.0184L7.07188 14.141L7.22172 14.2611H7.22296L7.37157 14.3775L7.52389 14.4927C8.6632 15.3397 9.91644 15.9428 12.0006 15.9441H12.0019L12.1381 15.9428H12.1406C14.1418 15.9168 15.3653 15.3212 16.4799 14.4939L16.4811 14.4914L16.6322 14.3775H16.6334L16.782 14.2623V14.2611L16.9319 14.141L17.0062 14.0803L17.1573 13.9565L17.3839 13.767L17.3864 13.7633L18.0055 13.2345L18.008 13.2332L18.3325 12.9583L18.4997 12.8196L18.6693 12.6797L18.8402 12.5435L18.8427 12.541L18.9306 12.4704L18.9331 12.4692L19.1114 12.3305C19.4953 12.0345 19.9114 11.741 20.3708 11.4574C19.7591 11.2172 19.2068 10.8692 18.7003 10.5039L18.6978 10.5014L18.5207 10.3714L18.3473 10.2401L18.174 10.1088L17.587 9.65309L17.5857 9.65185L17.4235 9.52801L17.4198 9.52554L17.2588 9.40417L17.073 9.26671L16.9814 9.20108L16.8427 9.10572L16.7523 9.04381L16.6136 8.95464L16.5232 8.89892L16.4316 8.84443L16.3412 8.79242L16.2508 8.74288L16.1604 8.69582L16.0712 8.65124L15.9783 8.6079C15.9651 8.60207 15.9519 8.59629 15.9387 8.59056L15.8433 8.55093C15.3692 8.34746 14.8445 8.29304 14.3387 8.3949C13.795 8.50635 13.1647 8.81347 12.4192 9.4438L12.2929 9.55154C12.212 9.62127 12.1087 9.65963 12.0019 9.65963C11.895 9.65963 11.7918 9.62127 11.7109 9.55154L11.5858 9.4438C10.839 8.81223 10.2099 8.50635 9.66629 8.3949C9.16053 8.29304 8.63575 8.34746 8.16165 8.55093ZM12.0019 8.63143C11.239 8.01719 10.5282 7.66177 9.84461 7.52184C9.16666 7.38462 8.46308 7.45541 7.82605 7.72493L7.71955 7.76951L7.71336 7.77199L7.65887 7.79676L7.55361 7.84505L7.5437 7.85001L7.44463 7.89954L7.43596 7.90326L7.33689 7.95403L7.32822 7.95899L7.23039 8.01224L7.22296 8.01719L7.12389 8.07292L7.0211 8.13484L7.01739 8.13731C7.00001 8.14797 6.98267 8.15871 6.96538 8.16951L6.86631 8.23143L6.76352 8.29954L6.66197 8.36765L6.51337 8.47044L6.41182 8.54226L6.21616 8.68591L6.04402 8.81594L5.87436 8.94597L5.28489 9.40417L5.11771 9.53049L4.95053 9.65681L4.78087 9.78064C4.01803 10.3305 3.25766 10.7577 2.39575 10.8617C2.30016 10.8726 2.21063 10.914 2.14052 10.9799C2.07042 11.0457 2.0235 11.1325 2.00678 11.2273C1.99007 11.322 2.00444 11.4196 2.04776 11.5055C2.09108 11.5914 2.16103 11.661 2.24715 11.7038C2.98875 12.0808 3.69284 12.5274 4.34992 13.0376L4.52329 13.1713L4.60626 13.2382L4.77468 13.3732L4.93939 13.5082L5.10038 13.6432L5.33938 13.8438L5.34186 13.8462L5.80997 14.2475H5.81121L6.11956 14.51L6.35238 14.7044L6.50965 14.8332L6.66693 14.9583L6.6694 14.9608L6.83039 15.0846L6.98767 15.2048L6.99138 15.2072C8.25825 16.1496 9.69477 16.8357 12.0019 16.8357H12.0056L12.1468 16.8345H12.1505C14.3734 16.806 15.774 16.1286 17.0136 15.2072L17.1721 15.0871L17.1746 15.0846L17.3356 14.9608L17.3368 14.9583L17.4916 14.8357L17.4929 14.8345L17.5721 14.7701L17.7269 14.6425L17.9597 14.4469L18.5839 13.9144L18.5851 13.9119L18.9021 13.6444L18.9058 13.6419L19.0644 13.5094L19.0668 13.5069L19.2303 13.3732L19.3975 13.2382L19.4817 13.1726L19.6551 13.0376C20.3117 12.527 21.0154 12.08 21.7566 11.7026C21.8416 11.6593 21.9105 11.5898 21.9531 11.5045C21.9957 11.4191 22.0098 11.3223 21.9933 11.2283C21.9768 11.1343 21.9306 11.0481 21.8615 10.9824C21.7923 10.9166 21.7039 10.8748 21.6092 10.863C20.7461 10.7577 19.9869 10.3305 19.2241 9.78064H19.2229L19.0545 9.65681L18.8848 9.53049L18.7201 9.40417L18.7176 9.4017L18.1319 8.94721L17.9634 8.81718L17.7938 8.68963L17.5969 8.54598L17.4966 8.47415L17.348 8.37137L17.2464 8.30202L17.0941 8.20418L17.0867 8.19923L16.9901 8.13979L16.886 8.07787L16.782 8.01595L16.7746 8.01224L16.6755 7.95899L16.6681 7.95403L16.569 7.90326L16.5604 7.8983L16.4613 7.84877L16.4514 7.84505L16.3511 7.798L16.3461 7.79676C16.3276 7.78838 16.309 7.78012 16.2904 7.77199L16.1839 7.72741L16.1789 7.72493C15.5419 7.45541 14.8383 7.38462 14.1604 7.52184C13.4755 7.66177 12.7647 8.01719 12.0019 8.63143Z" fill="#485FC7"/>
<path fill-rule="evenodd" clip-rule="evenodd" d="M2.35736 11.3048C2.35736 11.1866 2.40433 11.0732 2.48794 10.9896C2.57154 10.906 2.68494 10.859 2.80318 10.859C5.32204 10.859 6.89231 11.1054 8.20995 11.3506L8.68177 11.4398C9.77898 11.6491 10.7152 11.8274 12.0019 11.8274C12.1201 11.8274 12.2335 11.8744 12.3171 11.958C12.4007 12.0416 12.4477 12.155 12.4477 12.2732C12.4477 12.3915 12.4007 12.5049 12.3171 12.5885C12.2335 12.6721 12.1201 12.7191 12.0019 12.7191C10.6273 12.7191 9.60932 12.5246 8.51211 12.3153C8.35697 12.2857 8.20176 12.2564 8.04648 12.2274C6.766 11.9884 5.2527 11.7506 2.80318 11.7506C2.74463 11.7506 2.68666 11.7391 2.63257 11.7167C2.57848 11.6943 2.52934 11.6615 2.48794 11.6201C2.44654 11.5787 2.4137 11.5295 2.3913 11.4754C2.36889 11.4213 2.35736 11.3634 2.35736 11.3048ZM8.75979 9.01382C9.23037 8.91722 9.65885 9.0262 10.1096 9.23549C10.2118 9.28836 10.2896 9.3787 10.3267 9.48761C10.3638 9.59651 10.3574 9.71555 10.3088 9.81983C10.2602 9.92411 10.1731 10.0056 10.0658 10.0471C9.95855 10.0887 9.83935 10.0872 9.73316 10.0429C9.37403 9.87697 9.14864 9.84477 8.93812 9.88688C8.70406 9.93393 8.41676 10.0875 7.96227 10.4491C7.86965 10.5228 7.75153 10.5568 7.6339 10.5434C7.51627 10.53 7.40877 10.4705 7.33503 10.3779C7.2613 10.2853 7.22738 10.1672 7.24073 10.0495C7.25408 9.9319 7.31362 9.82439 7.40624 9.75065C7.88549 9.37047 8.31026 9.10422 8.75979 9.01258V9.01382ZM16.626 12.9618C16.6625 13.0076 16.6896 13.0601 16.7059 13.1163C16.7221 13.1726 16.7271 13.2315 16.7205 13.2897C16.7139 13.3479 16.696 13.4042 16.6677 13.4555C16.6393 13.5067 16.6012 13.5519 16.5554 13.5884L16.3919 13.7197C15.7319 14.2485 15.1857 14.6856 14.143 14.9977C14.0297 15.0315 13.9076 15.0189 13.8036 14.9627C13.6995 14.9065 13.6221 14.8113 13.5882 14.698C13.5544 14.5847 13.567 14.4626 13.6232 14.3585C13.6794 14.2545 13.7746 14.177 13.8879 14.1432C14.761 13.8831 15.1857 13.5426 15.8446 13.0163L16.0006 12.8924C16.0928 12.8189 16.2104 12.7849 16.3276 12.7979C16.4448 12.8109 16.5521 12.8699 16.626 12.9618Z" fill="#485FC7"/>
<path fill-rule="evenodd" clip-rule="evenodd" d="M15.4915 12.3152C14.3943 12.5245 13.3776 12.7189 12.0018 12.7189C11.8835 12.7189 11.7702 12.6719 11.6865 12.5883C11.6029 12.5047 11.556 12.3913 11.556 12.2731C11.556 12.1548 11.6029 12.0414 11.6865 11.9578C11.7702 11.8742 11.8835 11.8273 12.0018 11.8273C13.2897 11.8273 14.2247 11.6489 15.3219 11.4396L15.7937 11.3505C17.1126 11.1053 18.6816 10.8588 21.2017 10.8588C21.2603 10.8588 21.3182 10.8704 21.3723 10.8928C21.4264 10.9152 21.4756 10.948 21.517 10.9894C21.5584 11.0308 21.5912 11.08 21.6136 11.134C21.636 11.1881 21.6475 11.2461 21.6475 11.3047C21.6475 11.3632 21.636 11.4212 21.6136 11.4753C21.5912 11.5294 21.5584 11.5785 21.517 11.6199C21.4756 11.6613 21.4264 11.6941 21.3723 11.7165C21.3182 11.7389 21.2603 11.7505 21.2017 11.7505C18.751 11.7505 17.2389 11.9882 15.9572 12.2273L15.4915 12.3139V12.3152ZM18.5949 2.44157C18.5798 2.38495 18.5537 2.33187 18.5181 2.28535C18.4825 2.23884 18.438 2.1998 18.3873 2.17047C18.3366 2.14114 18.2806 2.1221 18.2225 2.11443C18.1644 2.10676 18.1054 2.11062 18.0488 2.12578L16.3398 2.58398C16.2255 2.61452 16.1281 2.68922 16.0688 2.79164C16.0096 2.89406 15.9935 3.01581 16.024 3.13011C16.0546 3.2444 16.1293 3.34188 16.2317 3.40111C16.3341 3.46033 16.4559 3.47644 16.5702 3.44589L17.8482 3.10286L18.1912 4.38087C18.2045 4.43939 18.2294 4.49463 18.2645 4.54328C18.2996 4.59194 18.3442 4.633 18.3956 4.66402C18.4469 4.69504 18.504 4.71537 18.5634 4.72379C18.6228 4.73222 18.6833 4.72857 18.7413 4.71306C18.7992 4.69754 18.8535 4.67049 18.9007 4.63352C18.948 4.59655 18.9873 4.55042 19.0163 4.49789C19.0453 4.44537 19.0634 4.38753 19.0695 4.32784C19.0756 4.26815 19.0696 4.20785 19.0519 4.15053L18.5937 2.44157H18.5949Z" fill="#485FC7"/>
<path fill-rule="evenodd" clip-rule="evenodd" d="M18.1368 2.60373C18.0861 2.57442 18.0301 2.5554 17.972 2.54776C17.9139 2.54011 17.8549 2.54399 17.7983 2.55917C17.7417 2.57436 17.6887 2.60054 17.6422 2.63623C17.5958 2.67193 17.5568 2.71643 17.5276 2.76719L16.1517 5.15108C16.0976 5.25306 16.0851 5.37207 16.117 5.48305C16.1488 5.59403 16.2225 5.68833 16.3225 5.7461C16.4224 5.80387 16.5409 5.8206 16.653 5.79277C16.765 5.76494 16.8619 5.69472 16.9232 5.59689L18.3003 3.21301C18.3296 3.16228 18.3486 3.10627 18.3563 3.04818C18.3639 2.9901 18.36 2.93107 18.3449 2.87449C18.3297 2.8179 18.3035 2.76486 18.2678 2.7184C18.2321 2.67194 18.1876 2.63298 18.1368 2.60373ZM18.595 21.5584C18.58 21.615 18.5539 21.6681 18.5182 21.7146C18.4826 21.7611 18.4382 21.8001 18.3874 21.8295C18.3367 21.8588 18.2807 21.8778 18.2226 21.8855C18.1645 21.8932 18.1055 21.8893 18.0489 21.8742L16.34 21.416C16.2814 21.4027 16.2262 21.3778 16.1775 21.3427C16.1289 21.3076 16.0878 21.263 16.0568 21.2116C16.0258 21.1603 16.0055 21.1032 15.997 21.0438C15.9886 20.9844 15.9923 20.9239 16.0078 20.8659C16.0233 20.8079 16.0503 20.7537 16.0873 20.7065C16.1243 20.6592 16.1704 20.6199 16.2229 20.5909C16.2755 20.5619 16.3333 20.5438 16.393 20.5377C16.4527 20.5316 16.513 20.5375 16.5703 20.5553L17.8483 20.8971L18.1913 19.6191C18.2052 19.5611 18.2306 19.5065 18.2659 19.4585C18.3012 19.4105 18.3458 19.3701 18.397 19.3396C18.4482 19.3092 18.5051 19.2893 18.5641 19.2812C18.6231 19.273 18.6832 19.2768 18.7407 19.2923C18.7983 19.3078 18.8522 19.3347 18.8991 19.3713C18.9461 19.408 18.9853 19.4537 19.0143 19.5057C19.0433 19.5578 19.0616 19.6151 19.0681 19.6744C19.0746 19.7336 19.0691 19.7936 19.052 19.8507L18.5938 21.5596L18.595 21.5584Z" fill="#485FC7"/>
<path fill-rule="evenodd" clip-rule="evenodd" d="M18.1369 21.3975C18.0861 21.4267 18.03 21.4457 17.9719 21.4532C17.9138 21.4608 17.8547 21.4568 17.7981 21.4415C17.7415 21.4262 17.6885 21.3999 17.6421 21.3641C17.5957 21.3283 17.5568 21.2836 17.5276 21.2328L16.1518 18.8501C16.0927 18.7477 16.0767 18.6259 16.1073 18.5116C16.138 18.3974 16.2128 18.3 16.3153 18.2408C16.4177 18.1817 16.5395 18.1657 16.6538 18.1964C16.768 18.227 16.8654 18.3018 16.9245 18.4043L18.2991 20.787C18.3285 20.8376 18.3476 20.8936 18.3553 20.9516C18.3631 21.0096 18.3593 21.0686 18.3442 21.1252C18.3292 21.1818 18.3031 21.2348 18.2675 21.2813C18.232 21.3278 18.1876 21.3669 18.1369 21.3962V21.3975Z" fill="#485FC7"/>
</svg>

<svg width="24" height="24" fill="none" xmlns="http://www.w3.org/2000/svg"><path fill-rule="evenodd" clip-rule="evenodd" d="M5.919 2.442a.446.446 0 0 1 .546-.316l1.71.458a.446.446 0 0 1-.231.862l-1.278-.343-.343 1.278a.446.446 0 1 1-.861-.23l.458-1.71H5.92Z" fill="#485FC7"/><path fill-rule="evenodd" clip-rule="evenodd" d="M6.377 2.604a.446.446 0 0 1 .61.163l1.375 2.384a.446.446 0 1 1-.772.446L6.215 3.213a.446.446 0 0 1 .162-.61ZM5.92 21.558a.446.446 0 0 0 .546.316l1.71-.458a.447.447 0 1 0-.231-.86l-1.278.341-.343-1.278a.446.446 0 1 0-.861.232l.458 1.709-.001-.002Z" fill="#485FC7"/><path fill-rule="evenodd" clip-rule="evenodd" d="M6.377 21.398c.213.122.486.05.61-.165l1.375-2.383a.446.446 0 1 0-.772-.445l-1.375 2.382a.446.446 0 0 0 .162.61ZM8.162 8.55l-.096.04-.04.017-.092.043-.09.045-.091.047-.09.05-.09.051-.094.056a7.727 7.727 0 0 0-.042.025l-.093.06-.09.059-.092.062-.138.095-.092.066-.186.136-.163.124-.165.126-.59.458-.173.132-.176.132-.176.129c-.507.365-1.057.713-1.67.953.46.284.875.577 1.26.873l.002.002.178.138.09.071v.001l.174.14.17.14.168.139.244.205.47.403.306.26.227.19.15.122.15.12h.001l.149.117.152.115c1.14.847 2.392 1.45 4.477 1.451l.137-.001h.003c2-.026 3.224-.622 4.339-1.45l.001-.002.151-.114h.001l.149-.115.15-.121.074-.06.151-.124.227-.19.002-.004.62-.528.002-.002.325-.275.167-.138.17-.14.17-.136.003-.003.088-.07.002-.002.178-.138c.384-.296.8-.59 1.26-.874-.612-.24-1.164-.588-1.67-.953l-.003-.003-.177-.13-.174-.13-.173-.132-.587-.456-.001-.001-.162-.124-.004-.002-.161-.122-.186-.137-.092-.066-.138-.095-.09-.062-.14-.09-.09-.055-.091-.055-.09-.052-.091-.05-.09-.046-.09-.045-.093-.043a6.8 6.8 0 0 0-.04-.017l-.095-.04a2.542 2.542 0 0 0-1.504-.156c-.544.111-1.174.418-1.92 1.049l-.126.108a.446.446 0 0 1-.582 0l-.125-.108c-.747-.632-1.376-.938-1.92-1.05a2.542 2.542 0 0 0-1.504.157Zm3.84.08c-.763-.614-1.474-.97-2.157-1.11a3.433 3.433 0 0 0-2.019.204l-.106.045-.007.002-.054.025-.105.048-.01.005-.1.05-.008.003-.1.051-.008.005-.098.053-.007.005-.1.056-.102.062-.004.002-.052.033-.099.061-.102.069-.102.068-.149.102-.101.072-.196.144-.172.13-.17.13-.59.458-.166.126-.167.127-.17.124c-.763.55-1.523.977-2.385 1.08a.446.446 0 0 0-.149.843c.742.377 1.446.823 2.103 1.334l.173.133.083.067.169.135.164.135.161.135.24.2.002.003.468.402h.001l.309.262.232.194.158.13.157.124.002.003.161.124.158.12.003.002c1.267.943 2.704 1.629 5.01 1.629h.005l.14-.002h.004c2.223-.028 3.624-.705 4.864-1.627l.158-.12.003-.002.16-.124.002-.003.155-.122v-.002l.08-.064.155-.127.233-.196.624-.533.001-.002.317-.268.004-.002.158-.133.003-.002.163-.134.168-.135.084-.065.173-.135c.657-.511 1.36-.958 2.102-1.335a.446.446 0 0 0-.148-.84c-.863-.105-1.622-.532-2.385-1.082h-.001l-.168-.124-.17-.127-.165-.126-.002-.002-.586-.455-.169-.13-.17-.127-.196-.144-.1-.072-.149-.103-.102-.069-.152-.098-.007-.005-.097-.06-.104-.061-.104-.062-.007-.004-.1-.053-.007-.005-.099-.05-.009-.006-.099-.05-.01-.003-.1-.047-.005-.001a4.604 4.604 0 0 0-.056-.025l-.106-.045-.005-.002a3.433 3.433 0 0 0-2.019-.203c-.684.14-1.395.495-2.158 1.11Z" fill="#485FC7"/><path fill-rule="evenodd" clip-rule="evenodd" d="M2.357 11.305a.446.446 0 0 1 .446-.446c2.519 0 4.09.246 5.407.492l.472.089c1.097.21 2.033.387 3.32.387a.446.446 0 0 1 0 .892c-1.375 0-2.393-.194-3.49-.404l-.466-.088c-1.28-.239-2.793-.476-5.243-.476a.446.446 0 0 1-.446-.446ZM8.76 9.014c.47-.097.899.012 1.35.221a.446.446 0 0 1-.377.808c-.359-.166-.584-.198-.795-.156-.234.047-.521.2-.976.562a.446.446 0 1 1-.556-.698c.48-.38.904-.647 1.354-.738Zm7.866 3.948a.448.448 0 0 1-.07.626l-.164.132c-.66.528-1.206.966-2.249 1.278a.446.446 0 0 1-.255-.855c.873-.26 1.298-.6 1.957-1.127l.156-.124a.446.446 0 0 1 .625.07Z" fill="#485FC7"/><path fill-rule="evenodd" clip-rule="evenodd" d="M15.492 12.315c-1.098.21-2.114.404-3.49.404a.446.446 0 0 1 0-.892c1.288 0 2.223-.178 3.32-.387l.472-.09c1.319-.245 2.888-.491 5.408-.491a.446.446 0 0 1 0 .892c-2.451 0-3.963.237-5.245.476l-.466.087v.001Zm3.103-9.873a.446.446 0 0 0-.546-.316l-1.71.458a.446.446 0 0 0 .231.862l1.278-.343.343 1.278a.447.447 0 1 0 .86-.23l-.457-1.71Z" fill="#485FC7"/><path fill-rule="evenodd" clip-rule="evenodd" d="M18.137 2.604a.445.445 0 0 0-.61.163l-1.375 2.384a.446.446 0 0 0 .771.446L18.3 3.213a.447.447 0 0 0-.163-.61Zm.458 18.954a.443.443 0 0 1-.372.328.446.446 0 0 1-.174-.012l-1.709-.458a.447.447 0 1 1 .23-.86l1.278.341.343-1.278a.447.447 0 1 1 .861.232l-.458 1.709.001-.002Z" fill="#485FC7"/><path fill-rule="evenodd" clip-rule="evenodd" d="M18.137 21.398a.446.446 0 0 1-.61-.165l-1.375-2.383a.446.446 0 0 1 .772-.446l1.375 2.383a.444.444 0 0 1-.162.61Z" fill="#485FC7"/></svg>
